svgs/solid/align-center.svg

<svg xmlns="http://www.w3.org/2000/svg" viewBox="0 0 448 512"><!-- Font Awesome Pro 6.0.0-alpha2 by @fontawesome - https://fontawesome.com License - https://fontawesome.com/license (Commercial License) --><path d="M416 160H32C14.327 160 0 174.327 0 192V192C0 209.673 14.327 224 32 224H416C433.673 224 448 209.673 448 192V192C448 174.327 433.673 160 416 160ZM416 416H32C14.327 416 0 430.327 0 448V448C0 465.673 14.327 480 32 480H416C433.673 480 448 465.673 448 448V448C448 430.327 433.673 416 416 416ZM128 96H320C337.673 96 352 81.673 352 64V64C352 46.327 337.673 32 320 32H128C110.327 32 96 46.327 96 64V64C96 81.673 110.327 96 128 96ZM320 352C337.673 352 352 337.673 352 320V320C352 302.327 337.673 288 320 288H128C110.327 288 96 302.327 96 320V320C96 337.673 110.327 352 128 352H320Z"/></svg>

<svg xmlns="http://www.w3.org/2000/svg" viewBox="0 0 448 512"><!--! Font Awesome Pro 6.4.0 by @fontawesome - https://fontawesome.com License - https://fontawesome.com/license (Commercial License) Copyright 2023 Fonticons, Inc. --><path d="M352 64c0-17.7-14.3-32-32-32H128c-17.7 0-32 14.3-32 32s14.3 32 32 32H320c17.7 0 32-14.3 32-32zm96 128c0-17.7-14.3-32-32-32H32c-17.7 0-32 14.3-32 32s14.3 32 32 32H416c17.7 0 32-14.3 32-32zM0 448c0 17.7 14.3 32 32 32H416c17.7 0 32-14.3 32-32s-14.3-32-32-32H32c-17.7 0-32 14.3-32 32zM352 320c0-17.7-14.3-32-32-32H128c-17.7 0-32 14.3-32 32s14.3 32 32 32H320c17.7 0 32-14.3 32-32z"/></svg>
